assets/img/welcome-user.svg

<svg fill="none" height="50" viewBox="0 0 50 50" width="50" xmlns="http://www.w3.org/2000/svg"><path d="m25.0001 45.8333c-11.5063 0-20.83335-9.3271-20.83335-20.8333 0-11.5063 9.32705-20.83337 20.83335-20.83337 11.5062 0 20.8333 9.32707 20.8333 20.83337 0 11.5062-9.3271 20.8333-20.8333 20.8333zm-10.4167-20.8333c0 2.7626 1.0975 5.4121 3.051 7.3657 1.9535 1.9535 4.603 3.0509 7.3657 3.0509 2.7626 0 5.4122-1.0974 7.3657-3.0509 1.9535-1.9536 3.0509-4.6031 3.0509-7.3657h-4.1666c0 1.6576-.6585 3.2473-1.8306 4.4194s-2.7618 1.8306-4.4194 1.8306-3.2473-.6585-4.4194-1.8306-1.8306-2.7618-1.8306-4.4194z" fill="#fff"/></svg>

<svg width="50" height="50" viewBox="0 0 50 50" fill="none" xmlns="http://www.w3.org/2000/svg">
<path d="M25.0001 45.8333C13.4938 45.8333 4.16675 36.5062 4.16675 25C4.16675 13.4937 13.4938 4.16663 25.0001 4.16663C36.5063 4.16663 45.8334 13.4937 45.8334 25C45.8334 36.5062 36.5063 45.8333 25.0001 45.8333ZM14.5834 25C14.5834 27.7626 15.6809 30.4121 17.6344 32.3657C19.5879 34.3192 22.2374 35.4166 25.0001 35.4166C27.7627 35.4166 30.4123 34.3192 32.3658 32.3657C34.3193 30.4121 35.4167 27.7626 35.4167 25H31.2501C31.2501 26.6576 30.5916 28.2473 29.4195 29.4194C28.2474 30.5915 26.6577 31.25 25.0001 31.25C23.3425 31.25 21.7528 30.5915 20.5807 29.4194C19.4086 28.2473 18.7501 26.6576 18.7501 25H14.5834Z" fill="white"/>
</svg>
